X:1
T:Gütersloh, 98.98 D
T:Gütersloh, 98.98 D
T:Peter Philip Bilhorn, 1887
T:Public Domain Courtesy of the Cyber Hymnal™
C:Peter Philip Bilhorn, 1887
Z:Public Domain
Z:Courtesy of the Cyber Hymnal™
%%score ( 1 2 ) ( 3 4 )
L:1/8
Q:1/4=110
M:9/8
K:E
V:1 treble 
V:2 treble 
V:3 bass 
V:4 bass 
V:1
 [GB]3 | [GB]4 [EG][B,E] [B,E][B,F][EG] | [EB]3 [EA]2 z [EA]3 | [EG]4 [B,F][B,E] [B,G][B,E][B,F] | %4
 [B,E]6 [GB]3 | [GB]4 [EG][B,E] [B,E][B,F][EG] | [EB]3 [EA]2 z [EA]3 | %7
 [EG]4 [B,F][B,E] [B,G][B,E][B,F] | [B,E]6 E3 | [Ec]4 [D^B][Ec] [Ee][Ed][Ec] | %10
 [EB]3 [EG]2 z [GB]3 | [Ge]4 [Gd][Gc] [Fd][DB][Ec] | [DB]6 [AB]3 | [GB]4 [EG][B,E] [B,E][B,F][EG] | %14
 [EB]3 [EA]2 z [EA]3 | [EG]4"^riten." [B,F][B,E] [B,G][B,E][B,F] | [B,E]6 |] %17
V:2
 x3 | x9 | x9 | x9 | x9 | x9 | x9 | x9 | x6 E3 | x9 | x9 | x9 | x9 | x9 | x9 | x9 | x6 |] %17
V:3
 [E,B,]3 | [E,E]4 [E,B,][E,G,] [E,G,][E,A,][E,B,] | [A,,=D]3 [A,,C]2 z [A,,C]3 | %3
 [B,,B,]4 [B,,A,][B,,G,] [B,,B,][B,,G,][B,,A,] | [E,G,]6 [E,B,]3 | %5
 [E,E]4 [E,B,][E,G,] [E,G,][E,A,][E,B,] | [A,,=D]3 [A,,C]2 z [A,,C]3 | %7
 [B,,B,]4 [B,,A,][B,,G,] [B,,B,][B,,G,][B,,A,] | [E,G,]6 [E,G,]3 | %9
 [A,,A,]4 [A,,A,][A,,A,] [A,C][A,B,]A, | [E,G,]3 [E,B,]2 z [E,B,]3 | %11
 [C,C]4 [D,^B,][E,C] [F,=B,][F,B,][F,^A,] | [B,,B,]6 [B,,A,]3 | %13
 [E,E]4 [E,B,][E,G,] [E,G,][E,A,][E,B,] | [A,,=D]3 [A,,C]2 z [A,,C]3 | %15
 [B,,B,]4 [B,,A,][B,,G,] [B,,B,][B,,G,][B,,A,] | [E,G,]6 |] %17
V:4
 x3 | x9 | x9 | x9 | x9 | x9 | x9 | x9 | x9 | x8 A, | x9 | x9 | x9 | x9 | x9 | x9 | x6 |] %17

